public/media/sainapse.svg

<svg width="330" height="330" viewBox="0 0 330 330" fill="none" xmlns="http://www.w3.org/2000/svg">
<path d="M283.999 81.3477C293.388 81.3477 300.999 88.9591 300.999 98.3482L300.999 99.0761C300.999 108.465 293.388 116.077 283.999 116.077L185.183 116.077C175.794 116.077 168.182 108.465 168.182 99.0761V98.3482C168.182 88.9591 175.794 81.3477 185.183 81.3477L283.999 81.3477Z" fill="white"/>
<path d="M151.182 220.325C160.571 220.325 168.182 227.937 168.182 237.326V238.054C168.182 247.443 160.571 255.054 151.182 255.054H52.3755C42.9864 255.054 35.375 247.443 35.375 238.054L35.375 237.326C35.375 227.937 42.9864 220.325 52.3756 220.325L151.182 220.325Z" fill="white"/>
<path d="M283.637 133.488H185.556C175.964 133.488 168.188 141.264 168.188 150.856C168.188 155.49 166.361 159.701 163.42 162.809C160.236 166.142 155.765 168.224 150.809 168.224H52.743C43.1509 168.224 35.375 176 35.375 185.592C35.375 195.184 43.1509 202.96 52.743 202.96H150.824C160.416 202.96 168.192 195.184 168.192 185.592C168.192 180.957 170.019 176.746 172.96 173.638C176.144 170.305 180.615 168.224 185.571 168.224H283.637C293.229 168.224 301.005 160.448 301.005 150.856C301.005 141.264 293.229 133.488 283.637 133.488Z" fill="white"/>
</svg>

<svg xmlns="http://www.w3.org/2000/svg" width="330" height="330" fill="none"><path fill="#fff" d="M283.999 81.347c9.389 0 17 7.611 17 17v.728c0 9.389-7.611 17.001-17 17.001h-98.816c-9.389 0-17.001-7.612-17.001-17v-.729c0-9.389 7.612-17 17.001-17zM151.182 220.324c9.389 0 17 7.612 17 17.001v.728c0 9.389-7.611 17-17 17H52.376c-9.39 0-17.001-7.611-17.001-17v-.728c0-9.389 7.611-17.001 17-17.001zm132.455-86.837h-98.081c-9.592 0-17.368 7.776-17.368 17.368 0 4.634-1.827 8.845-4.768 11.953-3.184 3.333-7.655 5.415-12.611 5.415H52.743c-9.592 0-17.368 7.776-17.368 17.368s7.776 17.368 17.368 17.368h98.081c9.592 0 17.368-7.776 17.368-17.368 0-4.635 1.827-8.846 4.768-11.954 3.184-3.333 7.655-5.414 12.611-5.414h98.066c9.592 0 17.368-7.776 17.368-17.368s-7.776-17.368-17.368-17.368"/></svg>
